dist/img/icons/activity/share.svg

<svg width="22" height="23" viewBox="0 0 22 23" fill="none" xmlns="http://www.w3.org/2000/svg">
<g clip-path="url(#clip0_74:5749)">
<path d="M21.309 9.82707L12.5556 1.0737C12.1751 0.693024 11.7862 0.5 11.4 0.5C10.864 0.5 10.2381 0.901657 10.2381 2.03328V7.43039C7.56636 7.61234 5.08055 8.74765 3.1812 10.6668C1.12978 12.7395 0 15.4872 0 18.4035C0 19.6597 0.210815 20.8934 0.626907 22.0703C0.71788 22.3278 0.961426 22.5 1.23451 22.5C1.50777 22.5 1.75114 22.3278 1.84229 22.0703C3.12195 18.4499 6.44582 15.9263 10.2381 15.6267V20.9666C10.2381 22.0982 10.8639 22.4998 11.4 22.4998C11.7862 22.4998 12.1749 22.307 12.5554 21.9265L21.3091 13.1728C21.7546 12.7271 22 12.1331 22 11.4998C21.9998 10.8667 21.7544 10.2725 21.309 9.82707ZM20.3976 12.2614L11.644 21.0151C11.6027 21.0562 11.566 21.0891 11.5341 21.1151C11.5297 21.0741 11.527 21.025 11.527 20.9667V14.9528C11.527 14.7807 11.4582 14.6156 11.3357 14.4946C11.215 14.3752 11.0522 14.3082 10.8825 14.3082C10.8802 14.3082 10.8778 14.3084 10.8755 14.3084C8.57999 14.3339 6.38791 15.0595 4.53622 16.4065C3.23911 17.3501 2.17815 18.5449 1.40672 19.9192C1.32851 19.4202 1.28906 18.9141 1.28906 18.4035C1.28906 13.1086 5.59584 8.75302 10.8897 8.69411C11.2429 8.69025 11.5272 8.40289 11.5272 8.04958V2.03328C11.5272 1.97504 11.5299 1.92603 11.5341 1.8849C11.566 1.91092 11.6027 1.94382 11.644 1.98511L20.3976 10.7386C20.5997 10.9407 20.7109 11.211 20.7109 11.5C20.7108 11.7889 20.5995 12.0593 20.3976 12.2614Z" fill="#A7B0BC"/>
</g>
<defs>
<clipPath id="clip0_74:5749">
<rect width="22" height="22" fill="white" transform="translate(0 0.5)"/>
</clipPath>
</defs>
</svg>

<svg width="22" height="23" fill="none" xmlns="http://www.w3.org/2000/svg"><g clip-path="url(#clip0_74:5749)"><path d="M21.309 9.827l-8.753-8.753C12.176.693 11.786.5 11.4.5c-.536 0-1.162.402-1.162 1.533V7.43a10.925 10.925 0 00-7.057 3.237A10.932 10.932 0 000 18.404c0 1.256.21 2.49.627 3.666a.644.644 0 001.215 0 9.747 9.747 0 018.396-6.443v5.34c0 1.131.626 1.533 1.162 1.533.386 0 .775-.193 1.155-.573l8.754-8.754A2.35 2.35 0 0022 11.5a2.35 2.35 0 00-.691-1.673zm-.911 2.434l-8.754 8.754a1.51 1.51 0 01-.11.1 1.4 1.4 0 01-.007-.148v-6.014a.644.644 0 00-.644-.645h-.007a10.923 10.923 0 00-6.34 2.099 10.992 10.992 0 00-3.13 3.512 9.782 9.782 0 01-.117-1.515c0-5.295 4.307-9.651 9.6-9.71a.645.645 0 00.638-.644V2.033c0-.058.003-.107.007-.148.032.026.069.059.11.1l8.754 8.754c.202.202.313.472.313.761 0 .289-.111.56-.313.761z" fill="#A7B0BC"/></g><defs><clipPath id="clip0_74:5749"><path fill="#fff" transform="translate(0 .5)" d="M0 0h22v22H0z"/></clipPath></defs></svg>
